Adwaita++/actions/22/kdenlive-hide-video.svg

<svg fill="none" height="22" viewBox="0 0 22 22" width="22" xmlns="http://www.w3.org/2000/svg">
  <g fill="#444">
    <path d="m17 3-14 14 2 2 14-14z"/>
    <path clip-rule="evenodd" d="m6 5h7l2-2h-11c-.55228 0-1 .44772-1 1v11l1.5-1.5h-.5v-1h1v.5l1-1zm2.99716 1.12502 1.55244 1.32534-2.55344 2.55344-.00256-4.00378h.60627.06272c.11701-.001.23269.0388.33457.125zm2.63144 2.2464-3.63116 3.63118.00256 3.9974 5.7767-5.7767c-.0286-.0371-.0599-.0701-.094-.0983zm-2.6286 8.62858h7v-7l1-1v.5h1v-1h-.5l1.5-1.5v11c0 .5523-.4477 1-1 1h-11zm-2 0h-1v-3l-1 1v.5h-.5l-1.5 1.5v1c0 .5523.44772 1 1 1h1zm12-12v-1c0-.55228-.4477-1-1-1h-1l-2 2h1v3l1-1v-.5h.5zm-14 1.5h-1v1h1zm0 2h-1v1h1zm-1 2h1v1h-1zm14 0h-1v1h1zm-1 2h1v1h-1zm1 2h-1v1h1z" fill-rule="evenodd"/>
  </g>
</svg>

<svg xmlns="http://www.w3.org/2000/svg" fill="none" width="22" height="22" viewBox="0 0 22 22">
 <path fill="#444" d="M17 3L3 17L5 19L19 5L17 3Z"/>
 <path fill="#444" fill-rule="evenodd" d="M6 5H13L15 3H4C3.44772 3 3 3.44772 3 4V15L4.5 13.5H4V12.5H5V13L6 12V5ZM8.99716 6.12502L10.5496 7.45036L7.99616 10.0038L7.9936 6.00002H8.59987H8.66259C8.7796 5.99902 8.89528 6.03882 8.99716 6.12502ZM11.6286 8.37142L7.99744 12.0026L8 16L13.7767 10.2233C13.7481 10.1862 13.7168 10.1532 13.6827 10.125L11.6286 8.37142ZM9 17H16V10L17 9V9.5H18V8.5H17.5L19 7V18C19 18.5523 18.5523 19 18 19H7L9 17ZM7 17H6V14L5 15V15.5H4.5L3 17V18C3 18.5523 3.44772 19 4 19H5L7 17ZM19 5V4C19 3.44772 18.5523 3 18 3H17L15 5H16V8L17 7V6.5H17.5L19 5ZM5 6.5H4V7.5H5V6.5ZM5 8.5H4V9.5H5V8.5ZM4 10.5H5V11.5H4V10.5ZM18 10.5H17V11.5H18V10.5ZM17 12.5H18V13.5H17V12.5ZM18 14.5H17V15.5H18V14.5Z" clip-rule="evenodd"/>
</svg>
